assets/icons/compass-filled.svg

<?xml version="1.0" encoding="UTF-8" standalone="no"?>
<svg viewBox="0 0 24 24" height="24" id="svg7384" version="1.1" width="24" sodipodi:docname="compass-filled.svg" inkscape:version="1.1.2 (08b2f3d93c, 2022-04-05)"
   xmlns:inkscape="http://www.inkscape.org/namespaces/inkscape"
   xmlns:sodipodi="http://sodipodi.sourceforge.net/DTD/sodipodi-0.dtd"
   xmlns="http://www.w3.org/2000/svg"
   xmlns:svg="http://www.w3.org/2000/svg"
   xmlns:rdf="http://www.w3.org/1999/02/22-rdf-syntax-ns#"
   xmlns:cc="http://creativecommons.org/ns#"
   xmlns:dc="http://purl.org/dc/elements/1.1/">
   <sodipodi:namedview id="namedview22" pagecolor="#ffffff" bordercolor="#666666" borderopacity="1.0" inkscape:pageshadow="2" inkscape:pageopacity="0.0" inkscape:pagecheckerboard="0" showgrid="false" inkscape:zoom="2" inkscape:cx="-134.25" inkscape:cy="22.5" inkscape:window-width="1920" inkscape:window-height="1043" inkscape:window-x="1920" inkscape:window-y="0" inkscape:window-maximized="1" inkscape:current-layer="svg7384">
      <inkscape:grid type="xygrid" id="grid839" />
   </sodipodi:namedview>
   <metadata id="metadata20854">
      <rdf:RDF>
         <cc:Work rdf:about="">
            <dc:format>image/svg+xml</dc:format>
            <dc:type rdf:resource="http://purl.org/dc/dcmitype/StillImage" />
         </cc:Work>
      </rdf:RDF>
   </metadata>
   <defs id="defs7386">
      <linearGradient id="linearGradient5606" inkscape:swatch="solid">
         <stop id="stop5608" offset="0" style="stop-color:#000000;stop-opacity:1;" />
      </linearGradient>
      <linearGradient id="linearGradient4526" inkscape:swatch="solid">
         <stop id="stop4528" offset="0" style="stop-color:#ffffff;stop-opacity:1;" />
      </linearGradient>
      <linearGradient id="linearGradient3600-4" inkscape:swatch="gradient">
         <stop id="stop3602-7" offset="0" style="stop-color:#f4f4f4;stop-opacity:1" />
         <stop id="stop3604-6" offset="1" style="stop-color:#dbdbdb;stop-opacity:1" />
      </linearGradient>
   </defs>
   <path id="path1047" style="opacity:1;fill:#808080;fill-rule:evenodd;stroke-width:2;stroke-linecap:square;stroke-linejoin:round" d="M 12 2 A 10 10 0 0 0 2 12 A 10 10 0 0 0 12 22 A 10 10 0 0 0 22 12 A 10 10 0 0 0 12 2 z M 17.302734 6.6972656 C 16.488721 8.9328906 15.138556 11.588956 14.410156 12.964844 C 14.27818 13.205544 14.109389 13.425594 13.914062 13.621094 C 13.864819 13.670345 13.813395 13.716777 13.761719 13.761719 C 13.716777 13.813395 13.670345 13.864818 13.621094 13.914062 C 13.425594 14.10939 13.203591 14.278181 12.962891 14.410156 C 11.587004 15.138544 8.9328906 16.488734 6.6972656 17.302734 C 7.4936031 15.115659 8.7907969 12.559706 9.5292969 11.160156 C 9.6690844 10.872856 9.8583485 10.607331 10.085938 10.378906 C 10.134633 10.330209 10.185253 10.284717 10.236328 10.240234 C 10.28181 10.187833 10.329 10.135843 10.378906 10.085938 C 10.607331 9.858348 10.872856 9.6690844 11.160156 9.5292969 C 12.559706 8.7907969 15.115646 7.4936156 17.302734 6.6972656 z M 12 11 A 1 1 0 0 0 11 12 A 1 1 0 0 0 12 13 A 1 1 0 0 0 13 12 A 1 1 0 0 0 12 11 z " />
</svg>

<svg height="24" width="24" xmlns="http://www.w3.org/2000/svg"><path style="opacity:1;fill:gray;stroke-width:2;stroke-linecap:square;stroke-linejoin:round" d="M12 2A10 10 0 0 0 2 12a10 10 0 0 0 10 10 10 10 0 0 0 10-10A10 10 0 0 0 12 2zm5.303 4.697c-.814 2.236-2.164 4.892-2.893 6.268a2.914 2.914 0 0 1-.648.797 2.925 2.925 0 0 1-.799.648c-1.376.729-4.03 2.079-6.266 2.893.797-2.187 2.094-4.743 2.832-6.143a2.923 2.923 0 0 1 .707-.92 2.922 2.922 0 0 1 .924-.71c1.4-.74 3.956-2.036 6.143-2.833zM12 11a1 1 0 0 0-1 1 1 1 0 0 0 1 1 1 1 0 0 0 1-1 1 1 0 0 0-1-1z"/></svg>
